packages/icons/src/archive.svg

<svg width="15" height="15" viewBox="0 0 15 15" fill="none" xmlns="http://www.w3.org/2000/svg">
  <path
    fill-rule="evenodd"
    clip-rule="evenodd"
    d="M3.30902 1C2.93025 1 2.58398 1.214 2.41459 1.55279L1.05279 4.27639C1.01807 4.34582 1 4.42238 1 4.5V13C1 13.5523 1.44772 14 2 14H13C13.5523 14 14 13.5523 14 13V4.5C14 4.42238 13.9819 4.34582 13.9472 4.27639L12.5854 1.55281C12.416 1.21403 12.0698 1.00003 11.691 1.00003L7.5 1.00001L3.30902 1ZM3.30902 2L7 2.00001V4H2.30902L3.30902 2ZM8 4V2.00002L11.691 2.00003L12.691 4H8ZM7.5 5H13V13H2V5H7.5ZM5.5 7C5.22386 7 5 7.22386 5 7.5C5 7.77614 5.22386 8 5.5 8H9.5C9.77614 8 10 7.77614 10 7.5C10 7.22386 9.77614 7 9.5 7H5.5Z"
    fill="currentColor"
  />
</svg>

<svg xmlns="http://www.w3.org/2000/svg" width="15" height="15" fill="none"><path fill="currentColor" fill-rule="evenodd" d="M3.309 1a1 1 0 0 0-.894.553L1.053 4.276A.5.5 0 0 0 1 4.5V13a1 1 0 0 0 1 1h11a1 1 0 0 0 1-1V4.5a.5.5 0 0 0-.053-.224l-1.362-2.723A1 1 0 0 0 11.691 1zm0 1H7v2H2.309zM8 4V2h3.691l1 2zm-.5 1H13v8H2V5zm-2 2a.5.5 0 0 0 0 1h4a.5.5 0 0 0 0-1z" clip-rule="evenodd"/></svg>
